Pods/ProtonCore-UIFoundations/libraries/UIFoundations/Sources/Assets.xcassets/Images/IconSet/ic-envelope-dot.imageset/ic-envelope-dot.svg

<svg width="24" height="24" viewBox="0 0 24 24" fill="none" xmlns="http://www.w3.org/2000/svg">
<path fill-rule="evenodd" clip-rule="evenodd" d="M20.25 10.5C22.3211 10.5 24 8.82107 24 6.75C24 4.67893 22.3211 3 20.25 3C18.1789 3 16.5 4.67893 16.5 6.75C16.5 8.82107 18.1789 10.5 20.25 10.5ZM6.3 4.5H15.5052C15.2837 4.96628 15.1289 5.47039 15.0532 6H6.3C5.43517 6 4.87676 6.00117 4.45175 6.03589C4.04426 6.06918 3.89318 6.1257 3.81901 6.16349C3.53677 6.3073 3.3073 6.53677 3.16349 6.81901C3.1257 6.89318 3.06918 7.04426 3.03589 7.45175C3.03248 7.49351 3.02939 7.53656 3.0266 7.58105L11.6069 12.8613C11.848 13.0096 12.152 13.0096 12.3931 12.8613L16.4453 10.3676C16.8143 10.7555 17.242 11.0871 17.7141 11.348L13.1792 14.1387C12.4561 14.5838 11.5439 14.5838 10.8208 14.1387L3 9.32595V16.2C3 17.0648 3.00117 17.6232 3.03589 18.0482C3.06918 18.4557 3.1257 18.6068 3.16349 18.681C3.3073 18.9632 3.53677 19.1927 3.81901 19.3365C3.89318 19.3743 4.04426 19.4308 4.45175 19.4641C4.87676 19.4988 5.43517 19.5 6.3 19.5H17.7C18.5648 19.5 19.1232 19.4988 19.5482 19.4641C19.9557 19.4308 20.1068 19.3743 20.181 19.3365C20.4632 19.1927 20.6927 18.9632 20.8365 18.681C20.8743 18.6068 20.9308 18.4557 20.9641 18.0482C20.9988 17.6232 21 17.0648 21 16.2V11.9468C21.5296 11.8711 22.0337 11.7163 22.5 11.4948V16.2C22.5 17.8802 22.5 18.7202 22.173 19.362C21.8854 19.9265 21.4265 20.3854 20.862 20.673C20.2202 21 19.3802 21 17.7 21H6.3C4.61984 21 3.77976 21 3.13803 20.673C2.57354 20.3854 2.1146 19.9265 1.82698 19.362C1.5 18.7202 1.5 17.8802 1.5 16.2V9.3C1.5 7.61984 1.5 6.77976 1.82698 6.13803C2.1146 5.57354 2.57354 5.1146 3.13803 4.82698C3.77976 4.5 4.61984 4.5 6.3 4.5Z" fill="#0C0C14"/>
</svg>

<svg xmlns="http://www.w3.org/2000/svg" width="24" height="24" viewBox="0 0 24 24">
  <g class="ic-envelope-dot">
    <path fill-rule="evenodd" d="M20.25 10.5a3.75 3.75 0 1 0 0-7.5 3.75 3.75 0 0 0 0 7.5ZM6.3 4.5h9.205a5.23 5.23 0 0 0-.452 1.5H6.3c-.865 0-1.423.001-1.848.036-.408.033-.559.09-.633.127a1.5 1.5 0 0 0-.656.656c-.037.074-.094.225-.127.633a6.88 6.88 0 0 0-.01.13l8.58 5.28a.75.75 0 0 0 .787 0l4.052-2.494c.37.387.797.72 1.27.98l-4.536 2.79a2.25 2.25 0 0 1-2.358 0L3 9.327V16.2c0 .865.001 1.423.036 1.848.033.408.09.559.127.633a1.5 1.5 0 0 0 .656.655c.074.038.225.095.633.128.425.035.983.036 1.848.036h11.4c.865 0 1.423-.001 1.848-.036.408-.033.559-.09.633-.127a1.5 1.5 0 0 0 .655-.656c.038-.074.095-.225.128-.633.035-.425.036-.983.036-1.848v-4.253a5.212 5.212 0 0 0 1.5-.452V16.2c0 1.68 0 2.52-.327 3.162a3 3 0 0 1-1.311 1.311C20.22 21 19.38 21 17.7 21H6.3c-1.68 0-2.52 0-3.162-.327a3 3 0 0 1-1.311-1.311C1.5 18.72 1.5 17.88 1.5 16.2V9.3c0-1.68 0-2.52.327-3.162a3 3 0 0 1 1.311-1.311C3.78 4.5 4.62 4.5 6.3 4.5Z" class="Icon"/>
  </g>
</svg>
